source/images/grapheme1.svg

<svg width="222" height="149" viewBox="0 0 222 149" fill="none" xmlns="http://www.w3.org/2000/svg">
<path d="M159.239 11.2656C139.054 11.2656 121.114 20.8059 109.637 35.6024L148.083 74.0488L109.659 112.466C121.136 127.255 139.076 136.781 159.246 136.781C193.905 136.781 222 108.686 222 74.0268C222 39.3601 193.898 11.2656 159.239 11.2656Z" fill="#080808"/>
<path d="M95.7538 73.9902C95.7538 59.4056 100.952 46.042 109.585 35.6317L73.961 0L0 73.961L74.078 148.039L109.651 112.466C109.183 111.866 108.73 111.26 108.291 110.645C100.462 100.484 95.7538 87.7999 95.7538 73.9902Z" fill="#080808"/>
<path d="M109.644 35.6024C101.083 45.7641 95.4102 60.4219 95.7903 74.8749C96.1997 90.4025 100.681 100.952 108.335 110.602C108.796 111.201 109.169 111.874 109.651 112.458L148.076 74.0414L109.644 35.6024Z" fill="#F1B114"/>
</svg>

<svg width="222" height="149" fill="none" xmlns="http://www.w3.org/2000/svg"><path d="M159.239 11.266c-20.185 0-38.125 9.54-49.602 24.336l38.446 38.447-38.424 38.417c11.477 14.789 29.417 24.315 49.587 24.315 34.659 0 62.754-28.095 62.754-62.754 0-34.667-28.102-62.761-62.761-62.761zM95.754 73.99c0-14.584 5.198-27.948 13.831-38.358L73.961 0 0 73.961l74.078 74.078 35.573-35.573c-.468-.6-.921-1.206-1.36-1.821-7.829-10.161-12.537-22.845-12.537-36.655z" fill="#080808"/><path d="M109.644 35.602c-8.561 10.162-14.234 24.82-13.854 39.273.41 15.528 4.891 26.077 12.545 35.727.461.599.834 1.272 1.316 1.856l38.425-38.417-38.432-38.439z" fill="#F1B114"/></svg>
